X:1
T:Jubilate Deo
T:Heinrich Isaac edit BMarble
T:Jubilate Deo
T:Copyright © 2015 by The Choral Public Domain Library. Edition may be freely distributed, duplicated, performed or recorded.
T:Copyright © 2015 by The Choral Public Domain Library. Edition may be freely distributed, duplicated, performed or recorded.
T:Copyright © 2015 by The Choral Public Domain Library. Edition may be freely distributed, duplicated, performed or recorded.
T:Copyright © 2015 by The Choral Public Domain Library. Edition may be freely distributed, duplicated, performed or recorded.
T:Copyright © 2015 by The Choral Public Domain Library. Edition may be freely distributed, duplicated, performed or recorded.
T:Copyright © 2015 by The Choral Public Domain Library. Edition may be freely distributed, duplicated, performed or recorded.
T:Copyright © 2015 by The Choral Public Domain Library. Edition may be freely distributed, duplicated, performed or recorded.
T:Copyright © 2015 by The Choral Public Domain Library. Edition may be freely distributed, duplicated, performed or recorded.
T:Copyright © 2015 by The Choral Public Domain Library. Edition may be freely distributed, duplicated, performed or recorded.
C:Heinrich Isaac
C:edit BMarble
Z:Copyright © 2015 by The Choral Public Domain Library. Edition may be freely distributed, duplicated, performed or recorded.
%%score [ 1 2 3 4 ]
L:1/8
Q:1/2=100
M:4/4
K:C
V:1 treble nm="Soprano" snm="S."
V:2 treble nm="Alto" snm="A."
V:3 treble-8 transpose=-12 nm="Tenor" snm="T."
V:4 bass nm="Bass" snm="B."
V:1
"^Introit: Easter III: Shout joyfully to God,all the earth; sing psalms to His name;give Him glorious praise. Vs: Say to God, how awesome are your deeds;your enemies fall before your great strength." z24 || %1
w: |
[M:4/2] c8 G8 | A8 G8 | A8 G4 A4- | A2 G2 G8 ^F4 | G16 | z8 A8 | c8 B8 | c8 A8 | A8 c8 | %10
w: o- mnis|ter- ra|al- le- lu-||ia:|psal-||mum _|di- *|
 A8 G4 A4- | A4 G2 F2 G8 | F8 z4 A4 | c6 B2 A4 G4 | F8 G8 | A8 A8 | G8 z8 | A8 c8 | A12 c4- | %19
w: ci- te, di-|* * * ci-|te no-||* mi-|ni e-|jus,|al- *|le- lu-|
 c2 B2 A8 =G4 | A16 | z4 c8 G4 | A6 _B2 G8 | F8 A8 | c6 =B2 A4 G4 | F8 G8 | z8 G8 | A8 F4 A4- | %28
w: |ia:|da- te|glo- * ri-|am, glo-|* * * ri-|am _|lau-|di _ e-|
 A4 G8 ^F4 | G8 z8 | G8 G8 | =F8 E8 | F8 D8 | F8 C8 | D8 F8 | G8 F8 | G4 A8 ^G4 | A8 z8 | A8 c8 | %39
w: |jus:|al- le-|lu- *|* ia,|_ al-|* le-||lu- * *|ia,|al- *|
 c6 B2 A2 G2 A4- | A4 G8 ^F4 | G16!fine! |] z16 | z16 | z20 | z16 | z22 |[M:4/2] c8 A8 | A8 c8- | %49
w: le- * * * *|* lu- *|ia.||||||men- *|ti- *|
 c4 c4 c4 c4 | c8 z4 c4 | c8 B8 | G8 A8 | c8 B4 A4- | A2 G2 G8 ^F4 | G16 || z18 | z22 | z16 | z18 | %60
w: * en- tur ti-|bi i-|ni- *|mi- *|ci _ tu-||i.|||||
[M:4/2] c8 A8 | A8 c8- | c4 c8 c4 | c8 z4 c4 | c8 B8 | G8 A8 | c8 B4 A4- | A2 G2 G8 ^F4 | G16 |] %69
w: et _|in _|_ sae- cu-|la sae-|cu- *|lo- *|rum. _ A-||men.|
V:2
 z24 ||[M:4/2] C6 D2 E2 F2 G4- | G4 F4 G8 | z4 F4 G4 F2 E2 | D4 C4 D8- | D8 z8 | D8 F8 | E4 F4 G8 | %8
w: |o- * * * mnis|_ ter- ra|al- le- * *|* lu- ia:|_|psal- *|mum di- ci-|
 E8 z8 | z8 z4 G4- | G4 F4 E4 F4- | F2 E2 D8 =C4 | D8 F8 | G6 F2 E6 D2 | C4 F4 E4 G4- | %15
w: te,|psal-|* mum di- ci-||te no-||* mi- ni e-|
 G4 ^F2 E2 F8 | G8 D8 | =F8 G8 | E8 z4 C4 | E4 F4 E8 | C4 F8 E2 D2 | C8 z4 E4- | E4 D4 E8 | %23
w: |jus, al-|le- lu-|ia, al-|le- * *|lu- ia: _ _|_ da-||
 A,4 D6 E2 F4 | G8 F4 E4 | D6 C2 B,2 A,2 G,4 | A,4 B,4 C8 | z4 C4 F6 E2 | D4 E4 D8- | D4 B,4 G,8 | %30
w: te glo- ri- am,|da- te _|glo- * * * *|* ri- am|lau- * *|* di e-|* * jus:|
 z16 | z8 z4 A,4 | A,8 _B,8 | A,8 z4 A,4 | A,4 _B,4 A,4 D4- | D4 ^C4 D8 | z4 D4 E4 E4 | =C8 z4 F4 | %38
w: |al-|le- lu-|ia, al-|le- * * lu-|* * ia,|al- le- lu-|ia, al-|
 F4 F4 G8 | z4 F4 E4 F4 | G4 C4 D8 | D16 |] z16 | z16 | z20 | z16 | z22 |[M:4/2] z8 C8 | F8 F8- | %49
w: le- lu- ia,|al- le- *|* * lu-|ia.||||||men-|* ti-|
 F4 F4 E6 F2 | G4 F4 G8 | C8 z4 G4 | G4 E4 F8 | E4 F4 G4 F4- | F4 E4 D8 | D16 || z18 | z22 | z16 | %59
w: * en- tur _|_ ti- *|bi i-|ni- * mi-|ci _ _ tu-||i.||||
 z18 |[M:4/2] z8 C8 | F8 F8- | F4 F4 E6 F2 | G4 F4 G8 | C8 z4 G4 | G4 E4 F8 | E4 F4 G4 F4- | %67
w: |et|_ in|_ sae- * *|* * cu-|la sae-|cu- * lo-|rum. _ _ A-|
 F4 E4 D8 | D16 |] %69
w: |men.|
V:3
 G2 G2 (A2 c2 G2) F2 (G2 A2) A8 ||[M:4/2] z16 | z16 | z8 c8 | G8 A8 | G8 z4 G4 | B6 c2 d8 | c8 d8 | %8
w: Ju- bi- la- * * te De- * o|||o-|mnis ter-|ra, al-|le- * *|lu- ia:|
 z4 c4 d4 f4- | f4 e2 d2 e8 | d8 z4 d4 | c4 B4 G8 | A8 z4 d4 | e6 d2 c6 B2 | A8 G8 | d16 | G16 | %17
w: psal- mum di-|* * * ci-|te, di-|* * ci-|te no-||mi- ni|e-|jus,|
 z4 d4 e6 d2 | c6 B2 A4 e4 | c4 d4 B8 | A8 z4 d4 | e6 d2 c6 B2 | A4 d8 ^c4 | d8 z4 d4 | %24
w: al- le- *|lu- * ia, al-|le- * lu-|ia: da-||te glo- ri-|am, glo-|
 e6 d2 c4 B4 | A8 G8 | d8 e6 d2 | c6 B2 A4 d4- | d2 B2 c4 A8 | G8 d8 | e6 d2 c4 B4 | A4 d8 ^c4 | %32
w: * * * ri-|am _|lau- * *|* * di, lau-|* * di e-|jus: al-|* * * le-|lu- * *|
 d8 z4 d4 | d8 e8 | d8 z4 d4 | =B4 G4 A4 d4 | c4 A4 B8 | A8 d8- | d8 e8 | A6 B2 c4 d4 | B4 G4 A8 | %41
w: ia, al-|le- lu-|ia, al-|le- lu- ia, al-|le- * lu-|ia, al-|* le-|lu- * ia, al-|le- * lu-|
 G16 |] G2 (A2 G2) (G2 c2) c2 c4 | c16 | (c2 B2) (c2 d2) d2 (c2 d2) c2 c4 | %45
w: ia.|Di- ci- * te _ De- o|quam~terribile~sunt~ope-|ra _ tu- * a, Do- * mi- ne!|
 (c2 A2) (A2 c2) c2 c2 c2 c2 | (c2 B2) (c2 d2) d2 (c2 d2) c8 |[M:4/2] z8 c8 | A8 A8 | c12 c4 | %50
w: in _ mul- * ti- tu- di- ne|vir- * tu- * tis tu- * ae|men-|* ti-|* en-|
 c4 c4 c8 | z4 c4 d4 e4- | e2 d2 c2 B2 A4 d4- | d4 c4 d8 | c4 B4 A8 | G16 || %56
w: tur ti- bi|i- ni- mi-|* * * * * ci|_ _ _|tu- * *|i.|
 G2 (A2 G2) (G2 c2) c8 | c2 c2 (c2 B2) (c2 d2) d2 (c2 d2) c4 | (c2 A2) (A2 c2) c8 | %59
w: Glo- ri- * a _ Patri~et~Filio,|et Spi- ri- * tu- * i San- * cto,|si- * cut _ erat~in~principio,|
 (c2 B2) (c2 d2) d2 (c2 d2) c4 |[M:4/2] z8 c8 | A8 A8 | c12 c4- | c4 c4 c8 | z4 c4 d4 e4- | %65
w: et _ nunc _ et sem- * per|et|_ in|_ sae-|* cu- la|sae- cu- lo-|
 e2 d2 c2 B2 A4 d4- | d4 c4 d8 | c4 B4 A8 | G16 |] %69
w: * * * * * rum.|_ _ _|A- * *|men.|
V:4
 z24 ||[M:4/2] z8 G,8 | D,8 E,8 | D,8 E,4 F,4 | G,4 E,4 D,8 | G,,12 G,4- | G,8 D,2 E,2 F,2 G,2 | %7
w: |o-|mnis ter-|ra, al- *|* le- lu-|ia: _|_ psal- * * *|
 A,8 G,8 | A,6 G,2 F,6 E,2 | D,8 C,8 | z4 D,4 E,4 D,4 | F,4 G,4 E,8 | D,4 F,8 E,2 D,2 | C,16 | %14
w: * mum|di- * * *|ci- te,|psal- lum di-||ci- te _ _|_|
 z16 | z8 D,8 | E,4 G,8 F,2 E,2 | D,8 C,8 | z4 C6 B,2 A,2 G,2 | A,4 D,4 E,8 | F,8 D,8 | A,12 E,4 | %22
w: |no-|mi- ni _ _|e- jus,|al- * * *|* le- lu-|* ia:|da- te|
 F,6 G,2 E,8 | D,16 | z4 C,4 F,4 G,4 | D,8 z4 E,4 | F,4 G,4 C,8 | z4 F,8 D,4 | G,4 C,4 D,8 | %29
w: glo- * ri-|am,|glo- * ri-|am lau-|* * di,|lau- di|e- * *|
 G,,4 G,6 A,2 B,4 | C4 C,6 D,2 E,4 | F,4 D,4 A,8 | D,16- | D,8 z8 | z4 D,4 D,8 | E,8 D,8 | %36
w: jus, al- le- lu-|ia, al- * *|le- * lu-|ia,|_|al- le-||
 E,4 F,4 E,8 | z4 A,4 G,4 F,4- | F,2 E,2 D,4 C,8 | F,6 G,2 A,4 D,4 | E,8 D,8 | G,,16 |] z16 | z16 | %44
w: lu- * ia,|al- le- lu-|* * * ia,|al- * * le-|lu- *|ia.|||
 z20 | z16 | z22 |[M:4/2] C,8 F,8 | F,12 F,4 | F,4 F,4 C,6 D,2 | E,4 F,8 E,4 | F,4 A,4 G,8 | %52
w: |||men- *|ti- en-|tur, men- ti- *|* en- tur|ti- * bi|
 z4 C,4 F,4 D,4 | A,8 G,4 D,4 | F,4 G,4 D,8 | G,,16 || z18 | z22 | z16 | z18 |[M:4/2] C,8 F,8 | %61
w: i- ni- mi-|ci tu- *||i.|||||et _|
 F,12 F,4- | F,4 F,4 C,6 D,2 | E,4 F,8 E,4 | F,4 A,4 G,8 | z4 C,4 F,4 D,4 | A,8 G,4 D,4 | %67
w: in sae-|* cu- la _|_ sae- cu-|lo- * rum,|sae- cu- *|lo- rum. A-|
 F,4 G,4 D,8 | G,,16 |] %69
w: |men.|

